X:1
T:Title
%%score { ( 1 4 ) | ( 2 3 ) }
L:1/8
M:6/8
K:Gb
V:1 treble nm="Grand Piano"
V:4 treble 
V:2 bass 
V:3 bass 
V:1
 z3 z2[Q:1/4=75] D | [DB]BB [DB]cB | B2 A D>FA | c2 c [Fc]2 [Ac] | [GB]3- [GB]2 B/B/ | %5
 [DB]BB [DB]cB | [DB]2 A E>FG | [=CB]AE [A,CF]2 [CE] |[M:5/8][K:bass] [F,A,D]-[F,A,D]- [F,A,D]3 | %9
[M:1/8][K:treble] [Fd]/[Fd]/ |[M:3/4] [Fd][FA] [FB] [Fc]2 [Fe] | ed G B2 B/=c/ | d2 d =c2 c | %13
[M:7/8] B3 z z z2 |[M:3/4] Bd- d/d/d cB | [Ec][Ge]- [Ge]/[Ge]/[Ge] [Fd][Ec] | BD c B2 A | %17
[M:5/8] [B,DG]-[B,DG]- [B,DG]3 |] %18
V:2
 z3 z2 B, | z DD z ED | D2 C C>CC | D2 D [D,F,A,]3 | z3 z2 D/D/ | z DD z ED | z2 C C>CC | %7
 z =CC z2 G, |[M:5/8] D,-D,- D,3 |[M:1/8] [D,A,]/[D,A,]/ |[M:3/4] [D,A,][D,D] [D,D] [D,D]2 [D,C] | %11
 [G,G]2 z2 z2[K:treble] | [B,F]2 [B,F] [__B,EF]2 [B,EF] |[M:7/8][K:bass] D-D-D- D3 z | %14
[M:3/4] [G,DG][G,B,G]- [G,B,G]/[G,B,G]/[G,B,G] [G,DG][G,D_F] | %15
 [C,C][C,C]- [C,C]/[C,C]/[C,G,] [C,G,][C,G,] | [D,G,D][D,G,B,] [D,A,D] [D,G,D]2 [D,CD] | %17
[M:5/8] [G,,G,]-[G,,G,]- [G,,G,]3 |] %18
V:3
 x6 | [G,,G,]3 [G,,G,]3 | [D,F,]3 [D,F,A,]3 | [D,F,A,]3 z3 | [G,,D,G,]6 | [G,,G,]3 [G,,G,]3 | %6
 [C,E,A,]3 [C,E,A,]3 | [A,,E,]3 A,,3 |[M:5/8] x5 |[M:1/8] x |[M:3/4] x6 | %11
 CB, [G,B,D] [G,D]2[K:treble] [B,D]/[B,E]/ | x6 |[M:7/8][K:bass] [B,F]2 G, F,3 D, |[M:3/4] x6 | %15
 x6 | x6 |[M:5/8] x5 |] %18
V:4
 x6 | x6 | x6 | x6 | x6 | x6 | x6 | x6 |[M:5/8][K:bass] x5 |[M:1/8][K:treble] x |[M:3/4] x6 | x6 | %12
 x6 |[M:7/8] z z/ A,/G [Ac]3 D |[M:3/4] x6 | x6 | x6 |[M:5/8] x5 |] %18

